X: 19
T:Johnny Mickey's Slide
M:6/8
L:1/8
R:Slide
K:D
FGF F2E D3 D2E|FGF FED E3 E2F|!
GFG B2G FEF A2F|EDE F2E D3 D2E||!
FGF F2E D3 D2E|FGF FED E3 E2F|!
GFG B2G FEF A2F|EDE F2E D3 D2F|]!
ABd A2F A3 A2F|ABd A2F G3 G2D|!
GFG B2G FEF A2F|EDE F2E D3 D2F||!
ABd A2F A3 A2F|ABd A2F G3 G2D|!
GFG B2G FEF A2F|EDE F2E D3 D2E|]!
